build/security/SafetyCertificateOutline.svg

<svg xmlns="http://www.w3.org/2000/svg" fill="none" viewBox="0 0 24 24" focusable="false"><path d="M0 0H24V24H0z"/><path fill="#74767B" fill-rule="evenodd" d="M4.98486 4.66138C4.40576 4.80615 4 5.32617 4 5.92261L4 11.1531C4 14.2561 5.59863 17.1404 8.22998 18.7852L11.311 20.7107C11.7324 20.9741 12.2676 20.9741 12.689 20.7107L15.77 18.7852C18.4014 17.1404 20 14.2561 20 11.1531L20 5.92261C20 5.32617 19.5942 4.80615 19.0151 4.66138L12.7275 3.0896C12.25 2.97021 11.75 2.97021 11.2725 3.0896L4.98486 4.66138ZM18.7002 11.1531L18.7002 5.92261L12.4121 4.35083C12.1416 4.28296 11.8584 4.28296 11.5879 4.35083L5.2998 5.92261L5.2998 11.1531C5.2998 13.8079 6.66748 16.2756 8.91895 17.6826L12 19.6084L15.0811 17.6826C17.3325 16.2756 18.7002 13.8079 18.7002 11.1531ZM10.6709 8.46729C10.417 8.21338 10.417 7.80176 10.6709 7.5481L11.2842 6.93433C12.5303 5.68848 14.5503 5.68848 15.7964 6.93433C17.042 8.18042 17.042 10.2004 15.7964 11.4463L15.1826 12.0598C14.9287 12.3137 14.5176 12.3137 14.2637 12.0598C14.0098 11.8062 14.0098 11.3945 14.2637 11.1406L14.877 10.5271C15.6152 9.78882 15.6152 8.59204 14.877 7.85376C14.1387 7.11548 12.9419 7.11548 12.2036 7.85376L11.5903 8.46729C11.3364 8.72095 10.9248 8.72095 10.6709 8.46729ZM13.4399 10.21C13.6938 9.95605 13.6938 9.54443 13.4399 9.29053C13.186 9.03687 12.7744 9.03687 12.5205 9.29053L10.4771 11.3342C10.2231 11.5881 10.2231 11.9995 10.4771 12.2534C10.731 12.5073 11.1426 12.5073 11.396 12.2534L13.4399 10.21ZM8.14453 10.074C6.89795 11.321 6.88379 13.3384 8.11279 14.6025L8.12061 14.6104C9.36621 15.8562 11.3867 15.8562 12.6323 14.6104L13.2944 13.9482C13.5483 13.6943 13.5483 13.2827 13.2944 13.0288C13.0405 12.7751 12.6289 12.7751 12.3755 13.0288L11.7134 13.6909C10.9761 14.4282 9.78125 14.4292 9.04297 13.6941C8.31152 12.9395 8.32031 11.7368 9.06396 10.9934L9.70166 10.3555C9.95557 10.1016 9.95557 9.69019 9.70166 9.43628C9.44824 9.18237 9.03662 9.18237 8.78271 9.43628L8.14453 10.074Z"/></svg>

<svg xmlns="http://www.w3.org/2000/svg" fill="none" viewBox="0 0 24 24" focusable="false"><path fill="#74767B" fill-rule="evenodd" d="M4 5.92c0-.6.4-1.12.98-1.26l6.29-1.58c.48-.11.98-.11 1.45 0l6.29 1.58c.58.14.99.66.99 1.26v5.23c0 3.1-1.6 5.99-4.23 7.63l-3.09 1.93a1.3 1.3 0 0 1-1.37 0l-3.09-1.93A8.99 8.99 0 0 1 4 11.15zm14.7 0v5.23c0 2.65-1.37 5.12-3.62 6.53L12 19.6l-3.09-1.92a7.72 7.72 0 0 1-3.62-6.53V5.92l6.29-1.57c.27-.07.56-.07.83 0zm-8.03 2.54a.64.64 0 0 1 0-.92l.61-.61a3.18 3.18 0 0 1 4.51 0 3.18 3.18 0 0 1 0 4.51l-.61.61a.64.64 0 0 1-.92 0 .63.63 0 0 1 0-.91l.61-.62c.74-.74.74-1.93 0-2.67s-1.93-.74-2.67 0l-.61.61a.64.64 0 0 1-.92 0m2.76 1.75a.64.64 0 0 0 0-.92.63.63 0 0 0-.91 0l-2.05 2.04c-.25.25-.25.66 0 .92.26.25.67.25.92 0zm-5.29-.14a3.223 3.223 0 0 0-.03 4.53l.01.01a3.2 3.2 0 0 0 4.51 0l.66-.67c.25-.25.25-.66 0-.92a.66.66 0 0 0-.92 0l-.66.67c-.74.73-1.93.73-2.67 0-.73-.76-.72-1.96.02-2.7l.64-.64c.25-.25.25-.66 0-.92a.66.66 0 0 0-.92 0z"/></svg>
